assets/images/inst.svg

<svg fill="none" height="34" viewBox="0 0 34 34" width="34" xmlns="http://www.w3.org/2000/svg"><g fill="#000"><path d="m23.7565 33.2092h-14.30398c-5.21119 0-9.45251855-4.2393-9.45251855-9.4526v-14.30392c0-5.2133 4.23921855-9.45251833 9.45251855-9.45251833h14.30608c5.2112 0 9.4525 4.23921833 9.4525 9.45251833v14.30602c0 5.2112-4.2392 9.4526-9.4525 9.4526zm-14.30398-30.36255c-3.64173 0-6.60603 2.96219-6.60603 6.60603v14.30602c0 3.6418 2.96219 6.6061 6.60603 6.6061h14.30608c3.6417 0 6.606-2.9622 6.606-6.6061v-14.30602c0-3.64173-2.9622-6.60603-6.606-6.60603z"/><path d="m16.6043 25.1052c-4.6895 0-8.50371-3.8142-8.50371-8.5037 0-4.6894 3.81421-8.50368 8.50371-8.50368 4.6894 0 8.5037 3.81428 8.5037 8.50368 0 4.6895-3.8143 8.5037-8.5037 8.5037zm0-14.1588c-3.12 0-5.6572 2.5372-5.6572 5.6572s2.5372 5.6572 5.6572 5.6572 5.6572-2.5372 5.6572-5.6572-2.5372-5.6572-5.6572-5.6572z"/><path d="m27.5212 7.61623c0 1.12975-.9152 2.04282-2.0428 2.04282-1.1277 0-2.0429-.91517-2.0429-2.04282 0-1.12766.9152-2.04283 2.0429-2.04283 1.1276 0 2.0428.91517 2.0428 2.04283z"/></g></svg>

<svg width="34" height="34" viewBox="0 0 34 34" fill="none" xmlns="http://www.w3.org/2000/svg">
<path d="M23.7565 33.2092H9.45252C4.24133 33.2092 1.4517e-06 28.9699 1.4517e-06 23.7566V9.45268C1.4517e-06 4.23938 4.23922 0.000161669 9.45252 0.000161669H23.7586C28.9698 0.000161669 33.2111 4.23938 33.2111 9.45268V23.7587C33.2111 28.9699 28.9719 33.2113 23.7586 33.2113L23.7565 33.2092ZM9.45252 2.84665C5.81079 2.84665 2.84649 5.80884 2.84649 9.45268V23.7587C2.84649 27.4005 5.80868 30.3648 9.45252 30.3648H23.7586C27.4003 30.3648 30.3646 27.4026 30.3646 23.7587V9.45268C30.3646 5.81095 27.4024 2.84665 23.7586 2.84665H9.45252Z" fill="black"/>
<path d="M16.6043 25.1052C11.9148 25.1052 8.10059 21.291 8.10059 16.6015C8.10059 11.9121 11.9148 8.09782 16.6043 8.09782C21.2937 8.09782 25.108 11.9121 25.108 16.6015C25.108 21.291 21.2937 25.1052 16.6043 25.1052ZM16.6043 10.9464C13.4843 10.9464 10.9471 13.4836 10.9471 16.6036C10.9471 19.7236 13.4843 22.2608 16.6043 22.2608C19.7243 22.2608 22.2615 19.7236 22.2615 16.6036C22.2615 13.4836 19.7243 10.9464 16.6043 10.9464Z" fill="black"/>
<path d="M27.5212 7.61623C27.5212 8.74598 26.606 9.65905 25.4784 9.65905C24.3507 9.65905 23.4355 8.74388 23.4355 7.61623C23.4355 6.48857 24.3507 5.5734 25.4784 5.5734C26.606 5.5734 27.5212 6.48857 27.5212 7.61623Z" fill="black"/>
</svg>
